style-guide/assets/xd-icons-quote.svg

<?xml version="1.0" encoding="UTF-8"?>
<svg width="24px" height="24px" viewBox="0 0 24 24" version="1.1" xmlns="http://www.w3.org/2000/svg" xmlns:xlink="http://www.w3.org/1999/xlink">
    <!-- Generator: Sketch 51.3 (57544) - http://www.bohemiancoding.com/sketch -->
    <title>quote</title>
    <desc>Created with Sketch.</desc>
    <defs>
        <path d="M19,20.000132 C17.37,20.000132 16.039,18.692132 16.001,17.070132 C16.001,16.990132 16.003,16.908132 16.005,16.828132 C16.094,15.254132 17.403,14.000132 19,14.000132 C20.654,14.000132 22,15.346132 22,17.000132 C22,18.654132 20.654,20.000132 19,20.000132 M19,12.000132 C18.146,12.000132 17.342,12.215132 16.639,12.594132 C17.614,9.13713196 19.675,6.05913196 22.611,3.79113196 C23.048,3.45313196 23.129,2.82613196 22.792,2.38913196 C22.453,1.95113196 21.825,1.87113196 21.389,2.20913196 C16.823,5.73513196 14.15,11.014132 14.006,16.750132 C14.002,16.834132 14,16.916132 14,17.000132 C14,17.027132 14,17.055132 14,17.081132 C14,17.135132 14,17.187132 14,17.240132 C14,17.307132 14.006,17.371132 14.019,17.434132 C14.239,19.988132 16.389,22.000132 19,22.000132 C21.757,22.000132 24,19.757132 24,17.000132 C24,14.243132 21.757,12.000132 19,12.000132 M5,20.000132 C3.37,20.000132 2.039,18.692132 2.001,17.070132 C2.001,16.990132 2.003,16.908132 2.005,16.828132 C2.094,15.254132 3.403,14.000132 5,14.000132 C6.654,14.000132 8,15.346132 8,17.000132 C8,18.654132 6.654,20.000132 5,20.000132 M5,12.000132 C4.146,12.000132 3.342,12.215132 2.639,12.594132 C3.614,9.13713196 5.675,6.05913196 8.611,3.79113196 C9.048,3.45313196 9.129,2.82613196 8.792,2.38913196 C8.454,1.95113196 7.825,1.87113196 7.389,2.20913196 C2.823,5.73513196 0.15,11.014132 0.006,16.750132 C0.002,16.834132 0,16.916132 0,17.000132 C0,17.027132 0,17.055132 0,17.081132 C0,17.135132 0,17.187132 0,17.240132 C0,17.307132 0.006,17.371132 0.019,17.434132 C0.239,19.988132 2.389,22.000132 5,22.000132 C7.757,22.000132 10,19.757132 10,17.000132 C10,14.243132 7.757,12.000132 5,12.000132" id="path-1"></path>
    </defs>
    <g id="quote" stroke="none" stroke-width="1" fill="none" fill-rule="evenodd">
        <mask id="mask-2" fill="white">
            <use xlink:href="#path-1"></use>
        </mask>
        <use id="icons/24px/Quote" fill="#000000" xlink:href="#path-1"></use>
    </g>
</svg>

<svg viewBox="0 0 24 24" xmlns="http://www.w3.org/2000/svg" xmlns:xlink="http://www.w3.org/1999/xlink">
  <path d="M19 20a3.004 3.004 0 0 1-2.995-3.172A3.003 3.003 0 0 1 19 14c1.654 0 3 1.346 3 3s-1.346 3-3 3m0-8a4.96 4.96 0 0 0-2.361.594c.975-3.457 3.036-6.535 5.972-8.803a1 1 0 1 0-1.222-1.582c-4.566 3.526-7.239 8.805-7.383 14.541A5.214 5.214 0 0 0 14 17v.241c0 .066.006.13.019.193A5.006 5.006 0 0 0 19 22c2.757 0 5-2.243 5-5s-2.243-5-5-5M5 20a3.004 3.004 0 0 1-2.995-3.172A3.003 3.003 0 0 1 5 14c1.654 0 3 1.346 3 3s-1.346 3-3 3m0-8a4.96 4.96 0 0 0-2.361.594c.975-3.457 3.036-6.535 5.972-8.803A1 1 0 1 0 7.389 2.21C2.823 5.735.15 11.014.006 16.75A5.214 5.214 0 0 0 0 17v.241c0 .066.006.13.019.193A5.006 5.006 0 0 0 5 22c2.757 0 5-2.243 5-5s-2.243-5-5-5"/>
</svg>
